src/pos-icons/desk.svg

<svg height="24" viewBox="0 0 24 24" width="24" xmlns="http://www.w3.org/2000/svg"><path d="m3 6h18c.55 0 1 .45 1 1s-.45 1-1 1v11h-2v-2h-4v2h-2v-11h-8v11h-2v-11c-.55 0-1-.45-1-1s.45-1 1-1m13 4.5v.5h2v-.5c0-.28-.22-.5-.5-.5h-1c-.28 0-.5.22-.5.5m0 4v.5h2v-.5c0-.28-.22-.5-.5-.5h-1c-.28 0-.5.22-.5.5z"/></svg>

<?xml version="1.0" encoding="UTF-8"?><!DOCTYPE svg PUBLIC "-//W3C//DTD SVG 1.1//EN" "http://www.w3.org/Graphics/SVG/1.1/DTD/svg11.dtd"><svg xmlns="http://www.w3.org/2000/svg" xmlns:xlink="http://www.w3.org/1999/xlink" version="1.1" id="mdi-desk" width="24" height="24" viewBox="0 0 24 24"><path d="M3 6H21C21.55 6 22 6.45 22 7C22 7.55 21.55 8 21 8V19H19V17H15V19H13V8H5V19H3V8C2.45 8 2 7.55 2 7C2 6.45 2.45 6 3 6M16 10.5V11H18V10.5C18 10.22 17.78 10 17.5 10H16.5C16.22 10 16 10.22 16 10.5M16 14.5V15H18V14.5C18 14.22 17.78 14 17.5 14H16.5C16.22 14 16 14.22 16 14.5Z" /></svg>
